X:07
T:Abbott’s Hornpipe. JBu.07
O:England,South Yorkshire
S:Joshua Burnett’s MS,c1835,S.Yorkshire
M:C|
L:1/8
Q:1/2=80
R:.hornpipe
Z:vmp.R.Greig.2010
K:F
cB|AfcA cBGE|FEFG AFCA,|B,DCE DFdc|BAGFE2cB|
AfcA cBGE|FEFG AFCA,|B,DCE DdcB|(3ABG FEF2:|
|:cB|Aceg afeA|BGef gecA|Acfe dcBA|cBABG2cB|
Aceg afcA|BGef gecA|Aagf edcB (3cdB (3ABG F2:|

